web/public/assets/contactIcons/Toggle.svg

<?xml version="1.0" encoding="UTF-8" standalone="no" ?>
<!DOCTYPE svg PUBLIC "-//W3C//DTD SVG 1.1//EN" "http://www.w3.org/Graphics/SVG/1.1/DTD/svg11.dtd">
<svg xmlns="http://www.w3.org/2000/svg" xmlns:xlink="http://www.w3.org/1999/xlink" version="1.1" width="24" height="24" viewBox="0 0 24 24" xml:space="preserve">
<desc>Created with Fabric.js 5.2.4</desc>
<defs>
</defs>
<rect x="0" y="0" width="100%" height="100%" fill="transparent"></rect>
<g transform="matrix(Infinity NaN NaN Infinity 0 0)" id="45870b7f-74bc-4901-bb2c-1901d27dffce"  >
</g>
<g transform="matrix(1 0 0 1 12 12)" id="25e29f05-6503-479a-ba93-9327b3b34de4"  >
<rect style="stroke: none; stroke-width: 1; stroke-dasharray: none; stroke-linecap: butt; stroke-dashoffset: 0; stroke-linejoin: miter; stroke-miterlimit: 4; fill: rgb(255,255,255); fill-rule: nonzero; opacity: 1; visibility: hidden;" vector-effect="non-scaling-stroke"  x="-12" y="-12" rx="0" ry="0" width="24" height="24" />
</g>
<g transform="matrix(1.19 0 0 1.19 12 12)"  >
<path style="stroke: rgb(0,0,0); stroke-width: 0; stroke-dasharray: none; stroke-linecap: butt; stroke-dashoffset: 0; stroke-linejoin: miter; stroke-miterlimit: 4; fill: rgb(168,168,168); fill-rule: nonzero; opacity: 1;" vector-effect="non-scaling-stroke"  transform=" translate(-12.01, -12)" d="M 2.009 12.002 C 2.009 6.485 6.489000000000001 2.005000000000001 12.007 2.005000000000001 C 17.525 2.005000000000001 22.005 6.485000000000001 22.005 12.002 C 22.005 17.52 17.525 22 12.007 22 C 6.489000000000001 22 2.0090000000000003 17.52 2.0090000000000003 12.002 z M 10.22 7.159000000000001 C 10.079 7.051000000000001 9.92 7.002000000000001 9.764000000000001 7.002000000000001 C 9.375000000000002 7.002000000000001 9.009 7.308000000000001 9.009 7.751 L 9.009 16.252 C 9.009 16.697 9.376000000000001 17.002 9.764000000000001 17.002 C 9.921000000000001 17.002 10.080000000000002 16.951999999999998 10.221000000000002 16.843 C 11.775000000000002 15.64 14.420000000000002 13.591000000000001 15.719000000000001 12.585 C 15.903 12.443000000000001 16.009 12.225000000000001 16.009 11.993 C 16.009 11.763 15.902000000000001 11.544 15.718 11.402000000000001 z" stroke-linecap="round" />
</g>
</svg>

<svg clip-rule="evenodd" fill-rule="evenodd" stroke-linejoin="round" stroke-miterlimit="2" viewBox="0 0 24 24" xmlns="http://www.w3.org/2000/svg"><path d="m2.009 12.002c0-5.517 4.48-9.997 9.998-9.997s9.998 4.48 9.998 9.997c0 5.518-4.48 9.998-9.998 9.998s-9.998-4.48-9.998-9.998zm8.211-4.843c-.141-.108-.3-.157-.456-.157-.389 0-.755.306-.755.749v8.501c0 .445.367.75.755.75.157 0 .316-.05.457-.159 1.554-1.203 4.199-3.252 5.498-4.258.184-.142.29-.36.29-.592 0-.23-.107-.449-.291-.591z" fill-rule="nonzero"/></svg>
